X:772
T:The queen of the rushes
R:Jig
O:Ireland
P:See also: The humors of Ennistymon
D:Planxty- Words and music
B:Irish Old and New
B:Irish Traditional Music Session Tunes 3
S:1 Irish Traditional Music Session Tunes 3- mostly
Z:1 Transcription, arrangement, chords:Mike Long
S:2 Planxty- Words and music
Z:2 Transcription, chords:Mike Long
M:6/8
L:1/8
K:G
d/c/|\
"G"B2G GdB|"C"c2A "(D)"AGA|"G"B2G GAB|"C"cAG "D"FED|\
"G"B2G B2G|"C"c2A "(D)"AGA|"G"BdB "D"cAd|"G"GAG G2:|
|:g|\
"D"f2d efg|afd dcA|"G"gfg bag|"D"afd d2e|\
"F"=f2d "(A)"e^fg|"D"afd dcA|"G"BdB "D"cAd|"G"GAG G2:|
|:B/c/|\
"G"~d3 gdB|~d3 gdB|"D"cBc ABc|ABc ABc|\
"G"~d3 gdB|~d3 gdc|"G"BdB "D"cAd|"G"GAG G2:|
P:Arr. 2
AG|\
"D"F2D DAF|"G"G2E EAG|"D"F2D DAF|"A"GED "D"DAG|\
"D"F2D DAF|"G"G2E EFG|"D"AAA "A"GEA|"D"DED D:|
|:B|\
"C"c2A Bcd|ecA AGE|"D"d2e fed|"Am"ecA A2B|\
"C"~c2A Bcd|ecA AGE|"D"~F3 "A"GEA|"D"DED D2:|
|:F/G/|\
"D"~A3 dAF|~A3 dAF|"C"~G3 ~E3|cBc EFG|\
"D"~A3 dAF|~A3 dAG|"D"~F3 "A"GEA|"D"DED D2:|
